!!!OTL: Christe caelorum dominator aue - II
**kern
*staff1
=1-
*clefC3
*k[b-]
*M3/2
1G
1G
1c
=2
0B-
1B-
=3
0f
1c
=4
1d
1G
1A
=5
0d
1r
=6
!!linebreak:original
1B-
1B-
1B-
=7
0e-
1B-
=8
0f
1d
=9
1f
1g
1f
=10
0B-
1r
!!linebreak:original
=11
1c
1c
1Bn
=12
0c
1G
=13
0e-
1B-
=14
1f
1g
1c
=15
0d
1r
=16
!!linebreak:original
1g
1e-
1c
=17
0d
1G
=18
1c
0c
=19
1Bn
0c
=20
0.G
==
*-
!!title: @{OTL}, @{GTL}, ed. @{ENC}
!!!pag:
!!!GTL: Hymnbook D
!!!EFL: 
!!!YEM: Creative Commons CC/BY/NC/SA 4.0
!!!ENC: Marcin Konik
!!!END: 2015-0m-dd
!!!EED: Marcin Konik
!!!EEV: 
!!!ONB: Encoded in vim by Marcin Konik
!!!CharacterEncoding: utf-8
!!!RDF**kern: l=long note in original notation
!!!RDF**kern: i=editorial accidental
!!muse2ps: z14jc180F
!!!COM: Anonim
!!!CDT: [?]
!!!TXO: Polish
!!!ODT: 
!!!GTL: Hymnbook D
!!!ARL: Opactwo św. Wojciecha, Staniątki 
!!!voices:	1
